src/images/leaderboard.svg

<svg width="20" height="20" viewBox="0 0 20 20" fill="none" xmlns="http://www.w3.org/2000/svg">
<path d="M8.92422 18.8255C8.05364 18.8255 7.28044 18.4017 6.79923 17.7498H6.18542V20.0001H13.6081V18.8255H8.92422Z" fill="white"/>
<path d="M8.92426 17.8485H14.5801C15.3443 17.8485 15.966 17.2268 15.966 16.4626V14.5225H8.92426C8.00729 14.5225 7.26123 15.2685 7.26123 16.1855C7.26123 17.1025 8.00729 17.8485 8.92426 17.8485Z" fill="white"/>
<path d="M12.2544 5.4144H10.9728C10.7053 5.4144 10.4885 5.6313 10.4885 5.89877V9.71056C10.4885 9.97803 10.2823 10.2112 10.015 10.2192C9.73837 10.2275 9.51157 10.0058 9.51157 9.73103V5.89884C9.51157 5.6313 9.29466 5.41446 9.02719 5.41446H7.74564C7.4781 5.41446 7.26126 5.63137 7.26126 5.89884V9.7311C7.26126 10.0058 7.03446 10.2276 6.75783 10.2193C6.49049 10.2113 6.28436 9.9781 6.28436 9.71062V1.15776C6.28436 0.552644 5.82025 0.0311629 5.21588 0.00139858C4.56982 -0.0304533 4.03406 0.48591 4.03406 1.12517V14.9033C4.03406 15.9357 4.87103 16.7728 5.90355 16.7728H6.35109C6.308 16.5838 6.28443 16.3874 6.28443 16.1854C6.28443 14.7298 7.46867 13.5456 8.92436 13.5456H15.9661V3.30921C15.9661 2.70409 15.502 2.18261 14.8976 2.15285C14.2516 2.12099 13.7158 2.63743 13.7158 3.27662V9.71056C13.7158 9.97803 13.5097 10.2112 13.2423 10.2192C12.9657 10.2275 12.7389 10.0058 12.7389 9.73103V5.89884C12.7388 5.6313 12.5219 5.4144 12.2544 5.4144Z" fill="white"/>
</svg>

<svg width="20" height="20" fill="none" xmlns="http://www.w3.org/2000/svg"><path d="M8.924 18.826c-.87 0-1.644-.424-2.125-1.076h-.614V20h7.423v-1.174H8.924zM8.924 17.849h5.656c.764 0 1.386-.622 1.386-1.386v-1.94H8.924c-.917 0-1.663.745-1.663 1.663 0 .916.746 1.663 1.663 1.663z" fill="#fff"/><path d="M12.254 5.414h-1.281a.484.484 0 00-.485.485V9.71c0 .267-.206.5-.473.508a.488.488 0 01-.503-.488V5.899a.484.484 0 00-.485-.485H7.746a.484.484 0 00-.485.485V9.73a.488.488 0 01-.503.488.502.502 0 01-.474-.508V1.158C6.284.553 5.82.03 5.216 0a1.126 1.126 0 00-1.182 1.124v13.778a1.87 1.87 0 001.87 1.87h.447a2.639 2.639 0 012.573-3.227h7.042V3.309c0-.605-.464-1.126-1.068-1.156a1.126 1.126 0 00-1.182 1.124V9.71c0 .267-.206.5-.474.508a.488.488 0 01-.503-.488V5.899a.485.485 0 00-.485-.485z" fill="#fff"/></svg>
